src/pos-icons/swap-vertical.svg

<svg height="24" viewBox="0 0 24 24" width="24" xmlns="http://www.w3.org/2000/svg"><path d="m9 3-4 4h3v7h2v-7h3m3 10v-7h-2v7h-3l4 4 4-4z"/></svg>

<?xml version="1.0" encoding="UTF-8"?><!DOCTYPE svg PUBLIC "-//W3C//DTD SVG 1.1//EN" "http://www.w3.org/Graphics/SVG/1.1/DTD/svg11.dtd"><svg xmlns="http://www.w3.org/2000/svg" xmlns:xlink="http://www.w3.org/1999/xlink" version="1.1" id="mdi-swap-vertical" width="24" height="24" viewBox="0 0 24 24"><path d="M9,3L5,7H8V14H10V7H13M16,17V10H14V17H11L15,21L19,17H16Z" /></svg>
